Origami/22x22/apps/day-of-the-tentacle-remastered.svg

<svg width="22" height="22" version="1" xmlns="http://www.w3.org/2000/svg">
 <path d="m21 20.5s0-19-10-19-10 19-10 19c0 0.554 0.446 1 1 1h18c0.554 0 1-0.446 1-1z" style="opacity:.2"/>
 <path d="m21 20s0-19-10-19-10 19-10 19c0 0.554 0.446 1 1 1h18c0.554 0 1-0.446 1-1z" style="fill:#bb4499"/>
 <path d="M 11,1 C 1,1 1,20 1,20 1,20.03279 1.00671,20.06374 1.00977,20.0957 1.0457125,18.025627 1.6190226,1.5 11,1.5 c 9.380977,0 9.954287,16.525627 9.990234,18.595703 C 20.993288,20.063743 21,20.032787 21,20 21,20 21,1 11,1 Z" style="fill:#ffffff;opacity:.2"/>
 <path d="m17 11.5c0 3.313709-2.686291 6-6 6-3.3137085 0-6-2.686291-6-6 0-2.344961 1.345228-4.3757275 3.306068-5.362684 0.81006-0.40773 1.691717 0.6009705 2.660465 0.6009705 0.999551 0 1.975481-0.993868 2.804352-0.5615375 1.918997 1.00093 3.229115 3.009094 3.229115 5.323251z" style="opacity:.2"/>
 <path d="m 17,11 c 0,3.313709 -2.686291,6 -6,6 C 7.6862915,17 5,14.313709 5,11 5,8.7774605 6.2084355,6.8371665 8.0041005,5.800323 8.8856935,5.2912785 9.841897,6.67336 10.933066,6.67336 c 1.131038,0 2.255917,-1.3604065 3.158899,-0.816369 C 15.834531,6.9068705 17,8.8173305 17,11 Z" style="fill:#69e27d"/>
 <circle cx="11" cy="11" r="4" style="fill:#00a200"/>
 <path d="m3 7s2.2307325-1.5084615 3.5-1.5c1.64144 0.01094 2.858524 2 4.5 2 1.641477 0 2.85856-1.9890575 4.5-2 1.269268-0.00846 3.5 1.5 3.5 1.5" style="fill:none;opacity:.2;stroke-linecap:round;stroke-linejoin:round;stroke-width:2;stroke:#000000"/>
 <path d="m3 6.5s2.2307325-1.5084615 3.5-1.5c1.64144 0.01094 2.858524 2 4.5 2 1.641477 0 2.85856-1.9890575 4.5-2 1.269268-0.00846 3.5 1.5 3.5 1.5" style="fill:none;stroke-linecap:round;stroke-linejoin:round;stroke-width:2;stroke:#3f3f3f"/>
</svg>

<svg xmlns="http://www.w3.org/2000/svg" width="22" height="22" version="1">
 <path style="opacity:0.2" d="m 21,20.5 c 0,0 0,-19 -10,-19 -10,0 -10,19 -10,19 0,0.554 0.446,1 1,1 l 18,0 c 0.554,0 1,-0.446 1,-1 z"/>
 <path style="fill:#bb4499" d="M 21,20 C 21,20 21,1 11,1 1,1 1,20 1,20 c 0,0.554 0.446,1 1,1 l 18,0 c 0.554,0 1,-0.446 1,-1 z"/>
 <path style="opacity:0.2;fill:#ffffff" d="M 11,1 C 1,1 1,20 1,20 1,20.03279 1.00671,20.06374 1.00977,20.0957 1.0457125,18.025627 1.6190226,1.5 11,1.5 c 9.380977,0 9.954287,16.525627 9.990234,18.595703 C 20.993288,20.063743 21,20.032787 21,20 21,20 21,1 11,1 Z"/>
 <path style="opacity:0.2" d="m 17,11.5 c 0,3.313709 -2.686291,6 -6,6 -3.3137085,0 -6,-2.686291 -6,-6 0,-2.344961 1.345228,-4.3757275 3.306068,-5.362684 0.81006,-0.40773 1.691717,0.6009705 2.660465,0.6009705 0.999551,0 1.975481,-0.993868 2.804352,-0.5615375 C 15.689882,7.177679 17,9.185843 17,11.5 Z"/>
 <path style="fill:#69e27d" d="m 17,11 c 0,3.313709 -2.686291,6 -6,6 C 7.6862915,17 5,14.313709 5,11 5,8.7774605 6.2084355,6.8371665 8.0041005,5.800323 8.8856935,5.2912785 9.841897,6.67336 10.933066,6.67336 c 1.131038,0 2.255917,-1.3604065 3.158899,-0.816369 C 15.834531,6.9068705 17,8.8173305 17,11 Z"/>
 <circle style="fill:#00a200" cx="11" cy="11" r="4"/>
 <path style="opacity:0.2;fill:none;stroke:#000000;stroke-width:2;stroke-linecap:round;stroke-linejoin:round" d="m 3,7 c 0,0 2.2307325,-1.5084615 3.5,-1.5 1.64144,0.01094 2.858524,2 4.5,2 1.641477,0 2.85856,-1.9890575 4.5,-2 C 16.769268,5.49154 19,7 19,7 l 0,0"/>
 <path style="fill:none;stroke:#3f3f3f;stroke-width:2;stroke-linecap:round;stroke-linejoin:round" d="M 3,6.5 C 3,6.5 5.2307325,4.9915385 6.5,5 8.14144,5.01094 9.358524,7 11,7 12.641477,7 13.85856,5.0109425 15.5,5 16.769268,4.99154 19,6.5 19,6.5 l 0,0"/>
</svg>
